movies-explorer-frontend/src/images/burgermenu.svg

<svg xmlns="http://www.w3.org/2000/svg" fill="none" viewBox="0 0 44 44"><path fill="#fff" fill-rule="evenodd" d="M36 14H8v-3h28v3zM36 24H8v-3h28v3zM36 34H8v-3h28v3z" clip-rule="evenodd"/></svg>

<svg width="44" height="44" viewBox="0 0 44 44" fill="none" xmlns="http://www.w3.org/2000/svg">
<path fill-rule="evenodd" clip-rule="evenodd" d="M36 14L8 14V11L36 11V14Z" fill="white"/>
<path fill-rule="evenodd" clip-rule="evenodd" d="M36 24L8 24V21L36 21V24Z" fill="white"/>
<path fill-rule="evenodd" clip-rule="evenodd" d="M36 34L8 34V31L36 31V34Z" fill="white"/>
</svg>
